src/assets/icons/category_Motor.svg

<?xml version="1.0" encoding="UTF-8" standalone="no"?>
<svg width="38px" height="38px" viewBox="0 0 38 38" version="1.1" xmlns="http://www.w3.org/2000/svg" xmlns:xlink="http://www.w3.org/1999/xlink">
    <!-- Generator: sketchtool 41.2 (35397) - http://www.bohemiancoding.com/sketch -->
    <title>22888488-ED6F-4C96-B938-B661ED8CFE78</title>
    <desc>Created with sketchtool.</desc>
    <defs></defs>
    <g id="Nav" stroke="none" stroke-width="1" fill="none" fill-rule="evenodd">
        <g id="Categories_Selected_Mobile-" transform="translate(-80.000000, -171.000000)" fill="#AEAEAE">
            <path d="M104.387528,198.133183 C104.30757,198.194933 102.451903,199.569266 97.2474865,199.569266 C94.2700282,199.569266 92.0676115,198.813225 90.7447365,198.178308 C90.3520698,197.989891 89.9657365,197.502225 89.6308615,196.8871 C91.2775282,197.26235 92.8600698,197.412766 94.3024865,197.412766 C96.7542782,197.412766 98.8593198,197.008225 100.160028,196.66385 C101.235903,196.379641 102.039445,195.401933 102.039445,194.285683 L102.039445,189.466808 C102.039445,188.4131 101.68557,187.387891 101.114778,186.502808 C100.380903,185.362808 99.1466948,184.554516 97.6876532,184.226766 L92.0066532,182.953766 C93.1419032,181.892933 94.5827365,181.098891 96.4225698,180.744225 C97.0297782,180.627058 97.6361948,180.569266 98.2434032,180.569266 C100.385653,180.569266 102.474861,181.287308 104.171403,182.638683 C106.273278,184.313058 107.482153,186.708641 107.57557,189.384475 C107.688778,192.5931 106.259028,196.515016 104.387528,198.133183 M90.8080698,184.309891 L97.3139865,185.771308 C98.3502782,186.004058 99.2836532,186.582766 99.7839865,187.360183 C100.18932,187.989558 100.456111,188.717891 100.456111,189.466808 L100.456111,194.285683 C100.456111,194.683891 100.13707,195.032225 99.7554865,195.132766 C97.6694448,195.68535 93.4759865,196.404183 88.9294448,195.071016 C88.8004032,194.609475 88.6974865,194.151891 88.6618615,193.740225 C88.3887365,190.590183 88.9199448,186.966725 90.8080698,184.309891 M109.15732,189.447016 C109.047278,186.301725 107.626236,183.374933 105.156236,181.407641 C102.61657,179.384933 99.3224448,178.586933 96.1161948,179.203641 C89.1059865,180.555016 86.5219865,187.568391 87.0714032,193.905683 C87.2281532,195.713058 88.2866115,198.812433 90.0599448,199.663475 C91.5308615,200.36885 93.9723615,201.267391 97.2474865,201.267391 C103.12957,201.267391 105.19582,199.569266 105.411153,199.569266 L105.412736,199.569266 C107.901736,197.194266 109.27132,192.684933 109.15732,189.447016 Z M98.0812698,194.027996 C98.5182698,194.027996 98.8729365,193.673329 98.8729365,193.236329 L98.8729365,188.486329 C98.8729365,188.049329 98.5182698,187.694662 98.0812698,187.694662 C97.6442698,187.694662 97.2896032,188.049329 97.2896032,188.486329 L97.2896032,193.236329 C97.2896032,193.673329 97.6442698,194.027996 98.0812698,194.027996 Z M103.622936,190.069662 C103.185936,190.069662 102.83127,190.424329 102.83127,190.861329 L102.83127,191.652996 C102.83127,192.089996 103.185936,192.444662 103.622936,192.444662 C104.059936,192.444662 104.414603,192.089996 104.414603,191.652996 L104.414603,190.861329 C104.414603,190.424329 104.059936,190.069662 103.622936,190.069662 Z" id="Combined-Shape"></path>
        </g>
    </g>
</svg>

<svg width="38" height="38" viewBox="0 0 38 38" xmlns="http://www.w3.org/2000/svg"><g id="Nav" fill="none" fill-rule="evenodd"><g id="Categories_Selected_Mobile-" transform="translate(-80 -171)" fill="#AEAEAE"><path d="M104.388 198.133c-.08.062-1.936 1.436-7.14 1.436-2.978 0-5.18-.756-6.503-1.39-.393-.19-.78-.677-1.114-1.292 1.647.375 3.23.526 4.671.526 2.452 0 4.557-.405 5.858-.75 1.076-.283 1.88-1.261 1.88-2.377v-4.82c0-1.053-.354-2.078-.925-2.963-.734-1.14-1.968-1.948-3.427-2.276l-5.681-1.273c1.135-1.061 2.576-1.855 4.416-2.21a9.585 9.585 0 0 1 1.82-.175c2.143 0 4.232.718 5.928 2.07 2.102 1.674 3.311 4.07 3.405 6.745.113 3.21-1.317 7.131-3.188 8.75m-13.58-13.824l6.506 1.461c1.036.233 1.97.812 2.47 1.59.405.629.672 1.357.672 2.106v4.819c0 .398-.319.746-.7.847-2.087.552-6.28 1.271-10.827-.062a7.518 7.518 0 0 1-.267-1.33c-.273-3.15.258-6.774 2.146-9.431m18.35 5.137c-.11-3.145-1.532-6.072-4.002-8.04a11.112 11.112 0 0 0-9.04-2.203c-7.01 1.351-9.594 8.364-9.045 14.702.157 1.807 1.216 4.906 2.989 5.757 1.47.706 3.912 1.604 7.187 1.604 5.883 0 7.949-1.698 8.164-1.698h.002c2.489-2.375 3.858-6.884 3.744-10.122zm-11.077 4.581a.792.792 0 0 0 .792-.792v-4.75a.792.792 0 0 0-1.583 0v4.75c0 .437.354.792.791.792zm5.542-3.958a.792.792 0 0 0-.792.791v.792a.792.792 0 0 0 1.584 0v-.792a.792.792 0 0 0-.792-.791z" id="Combined-Shape"/></g></g></svg>
